src/img/map-pin.svg

<svg width="24" height="24" viewBox="0 0 24 24" fill="none" xmlns="http://www.w3.org/2000/svg">
<path fill-rule="evenodd" clip-rule="evenodd" d="M12 1.75C9.81196 1.75 7.71354 2.61919 6.16637 4.16637C4.61919 5.71354 3.75 7.81196 3.75 10C3.75 13.1985 5.8243 16.2657 8.04446 18.6092C9.13921 19.7648 10.2365 20.7099 11.0609 21.3664C11.4432 21.6708 11.7656 21.9122 12 22.0825C12.2344 21.9122 12.5568 21.6708 12.9391 21.3664C13.7635 20.7099 14.8608 19.7648 15.9555 18.6092C18.1757 16.2657 20.25 13.1985 20.25 10C20.25 7.81196 19.3808 5.71354 17.8336 4.16637C16.2865 2.61919 14.188 1.75 12 1.75ZM12 23C11.584 23.624 11.5835 23.6238 11.5835 23.6238L11.581 23.6221L11.5748 23.6179L11.5528 23.603C11.5339 23.5902 11.5068 23.5716 11.4719 23.5475C11.4021 23.4992 11.3014 23.4284 11.1742 23.3365C10.9197 23.1528 10.5587 22.8839 10.1266 22.5398C9.2635 21.8526 8.11079 20.8602 6.95554 19.6408C4.6757 17.2343 2.25 13.8015 2.25 10C2.25 7.41414 3.27723 4.93419 5.10571 3.10571C6.93419 1.27723 9.41414 0.25 12 0.25C14.5859 0.25 17.0658 1.27723 18.8943 3.10571C20.7228 4.93419 21.75 7.41414 21.75 10C21.75 13.8015 19.3243 17.2343 17.0445 19.6408C15.8892 20.8602 14.7365 21.8526 13.8734 22.5398C13.4413 22.8839 13.0803 23.1528 12.8258 23.3365C12.6986 23.4284 12.5979 23.4992 12.5281 23.5475C12.4932 23.5716 12.4661 23.5902 12.4472 23.603L12.4252 23.6179L12.419 23.6221L12.4171 23.6233C12.4171 23.6233 12.416 23.624 12 23ZM12 23L12.416 23.624C12.1641 23.792 11.8355 23.7917 11.5835 23.6238L12 23Z" fill="white"/>
<path fill-rule="evenodd" clip-rule="evenodd" d="M12 7.75C10.7574 7.75 9.75 8.75736 9.75 10C9.75 11.2426 10.7574 12.25 12 12.25C13.2426 12.25 14.25 11.2426 14.25 10C14.25 8.75736 13.2426 7.75 12 7.75ZM8.25 10C8.25 7.92893 9.92893 6.25 12 6.25C14.0711 6.25 15.75 7.92893 15.75 10C15.75 12.0711 14.0711 13.75 12 13.75C9.92893 13.75 8.25 12.0711 8.25 10Z" fill="white"/>
</svg>

<svg width="24" height="24" fill="none" xmlns="http://www.w3.org/2000/svg"><path fill-rule="evenodd" clip-rule="evenodd" d="M12 1.75A8.25 8.25 0 003.75 10c0 3.198 2.074 6.266 4.294 8.61A29.677 29.677 0 0012 22.082a29.672 29.672 0 003.956-3.473c2.22-2.344 4.294-5.412 4.294-8.61A8.25 8.25 0 0012 1.75zM12 23l-.416.624-.003-.002-.006-.004-.022-.015a11.758 11.758 0 01-.379-.267 31.168 31.168 0 01-4.219-3.696C4.676 17.235 2.25 13.803 2.25 10a9.75 9.75 0 0119.5 0c0 3.802-2.426 7.234-4.706 9.64a31.173 31.173 0 01-4.218 3.697 18.242 18.242 0 01-.379.266l-.022.015-.006.004-.002.001s-.001.001-.417-.623zm0 0l.416.624a.75.75 0 01-.832 0L12 23z" fill="#fff"/><path fill-rule="evenodd" clip-rule="evenodd" d="M12 7.75a2.25 2.25 0 100 4.5 2.25 2.25 0 000-4.5zM8.25 10a3.75 3.75 0 117.5 0 3.75 3.75 0 01-7.5 0z" fill="#fff"/></svg>
